www/assets/icons/app_registration.svg

<svg xmlns="http://www.w3.org/2000/svg" width="24" height="24" viewBox="0 0 24 24" fill='currentColor'><path d="M13.5 4h-4v4h4zm-6 12h-4v4h4zm0-6h-4v4h4zm0-6h-4v4h4zm6 8.42V10h-4v4h2.42zm6.88-1.13-1.17-1.17a.41.41 0 0 0-.58 0l-.88.88 1.75 1.75.88-.88a.41.41 0 0 0 0-.58m-9.88 6.96V20h1.75l6.67-6.67-1.75-1.75zM19.5 4h-4v4h4z"/></svg>

<svg width="24" height="24" viewBox="0 0 24 24" xmlns="http://www.w3.org/2000/svg" fill='currentColor'><path d="M13.5 4H9.5V8H13.5V4Z"/><path d="M7.5 16H3.5V20H7.5V16Z"/><path d="M7.5 10H3.5V14H7.5V10Z"/><path d="M7.5 4H3.5V8H7.5V4Z"/><path d="M13.5 12.42V10H9.5V14H11.92L13.5 12.42Z"/><path d="M20.38 11.29L19.21 10.12C19.05 9.96 18.79 9.96 18.63 10.12L17.75 11L19.5 12.75L20.38 11.87C20.54 11.71 20.54 11.45 20.38 11.29Z"/><path d="M10.5 18.25V20H12.25L18.92 13.33L17.17 11.58L10.5 18.25Z"/><path d="M19.5 4H15.5V8H19.5V4Z"/></svg>
